X:1
T:St. Leonards, 87.85
T:St. Leonards, 87.85
T:Arthur Cyril Barham-Gould, 1925
T:Public Domain Courtesy of the Cyber Hymnal™
C:Arthur Cyril Barham-Gould, 1925
Z:Public Domain
Z:Courtesy of the Cyber Hymnal™
%%score ( 1 2 ) ( 3 4 )
L:1/8
Q:1/4=110
M:4/4
K:Eb
V:1 treble 
V:2 treble 
V:3 bass 
V:4 bass 
V:1
 [EG]2 [EB]2 A2 [EG]2 | [CF]2 [CE]2 [B,E]2 [B,D]2 | [B,E]2 [CE]2 [B,F]2 [B,G]2 | %3
 [EG]2 [E=A]2 [DB]4 | [Ee]2 [EB]2 [Ec]2 [EB]2 | A2 [EG]2 [CF]2 [CE]2 | (EF) G2 (FC) [B,D]2 | %7
 [B,E]8 |] %8
V:2
 x4 (EC) x2 | x8 | x8 | x8 | x8 | (ED) x6 | B,2 (ED) C2 x2 | x8 |] %8
V:3
 [E,B,]2 [G,B,]2 [F,B,]2 [E,B,]2 | [A,,A,]2 [F,,A,]2 [B,,G,]2 [B,,F,]2 | %2
 [E,G,]2 [C,G,]2 [D,F,]2 E,2 | [C,G,]2 [F,,F,]2 [B,,F,]4 | [G,,B,]2 [G,B,]2 A,2 [G,B,]2 | %5
 [F,B,]2 [E,B,]2 [A,,A,]2 [F,,A,]2 | [B,,G,]2 [G,,B,]2 [A,,A,]2 [B,,A,]2 | (A,2 G,6) |] %8
V:4
 x8 | x8 | x8 | x8 | x8 | x8 | x8 | [E,,E,]8 |] %8

